assets/svg/networks/wallet_opensea.svg

<svg width="36" height="36" viewBox="0 0 36 36" fill="none" xmlns="http://www.w3.org/2000/svg">
<g clip-path="url(#clip0_21224_78189)">
<rect width="36" height="36" rx="12" fill="#2081E2"/>
<path d="M29.2454 20.2214V21.3315C29.2454 21.3952 29.2064 21.4519 29.1498 21.4766C28.8028 21.6254 27.6148 22.1707 27.1208 22.8576C25.8603 24.6121 24.8972 27.1208 22.7443 27.1208H13.7628C10.5796 27.1208 8 24.5325 8 21.3385V21.2359C8 21.1509 8.06903 21.0819 8.15402 21.0819H13.1609C13.26 21.0819 13.3326 21.1739 13.3238 21.2713C13.2883 21.597 13.3485 21.9299 13.5026 22.2326C13.8 22.8364 14.4161 23.2135 15.0818 23.2135H17.5604V21.2784H15.1101C14.9844 21.2784 14.9101 21.1332 14.9827 21.0305C15.0092 20.9898 15.0393 20.9473 15.0712 20.8995C15.3031 20.5702 15.6342 20.0585 15.9635 19.4761C16.1883 19.083 16.4061 18.6634 16.5814 18.2421C16.6168 18.1659 16.6451 18.088 16.6734 18.0119C16.7212 17.8773 16.7708 17.7516 16.8062 17.6259C16.8416 17.5197 16.8699 17.4082 16.8983 17.3037C16.9815 16.9461 17.0169 16.5672 17.0169 16.1742C17.0169 16.0201 17.0098 15.859 16.9957 15.705C16.9886 15.5368 16.9673 15.3686 16.9461 15.2004C16.9319 15.0517 16.9054 14.9047 16.877 14.7507C16.8416 14.5259 16.792 14.3028 16.7354 14.0779L16.7159 13.993C16.6734 13.8389 16.638 13.692 16.5885 13.538C16.4486 13.0546 16.2875 12.5837 16.1175 12.1429C16.0555 11.9676 15.9847 11.7994 15.9139 11.6312C15.8095 11.378 15.7032 11.1479 15.6058 10.9301C15.5563 10.8309 15.5138 10.7406 15.4713 10.6486C15.4235 10.5441 15.3739 10.4397 15.3243 10.3405C15.2889 10.2644 15.2482 10.1936 15.2199 10.1228L14.9171 9.5633C14.8746 9.48717 14.9455 9.39688 15.0287 9.4199L16.9231 9.93331H16.9284C16.9319 9.93331 16.9337 9.93511 16.9354 9.93511L17.1851 10.0041L17.4595 10.0821L17.5604 10.1104V8.98437C17.5604 8.44083 17.9959 8 18.5342 8C18.8033 8 19.0476 8.10977 19.2229 8.28857C19.3981 8.46741 19.5079 8.71172 19.5079 8.98437V10.6557L19.7098 10.7123C19.7257 10.7177 19.7416 10.7247 19.7558 10.7353C19.8054 10.7725 19.8762 10.8274 19.9665 10.8947C20.0373 10.9513 20.1134 11.0204 20.2055 11.0912C20.3878 11.2381 20.6056 11.4276 20.8446 11.6454C20.9083 11.7002 20.9703 11.7569 21.027 11.8136C21.335 12.1004 21.6803 12.4367 22.0096 12.8085C22.1016 12.913 22.1919 13.0192 22.284 13.1307C22.376 13.2441 22.4734 13.3556 22.5584 13.4672C22.6699 13.6159 22.7903 13.7699 22.8948 13.931C22.9443 14.0071 23.001 14.085 23.0488 14.1612C23.1834 14.3647 23.302 14.5755 23.4153 14.7861C23.4631 14.8835 23.5127 14.9897 23.5552 15.0942C23.6809 15.3757 23.78 15.6625 23.8437 15.9493C23.8632 16.0113 23.8774 16.0786 23.8845 16.1388V16.1529C23.9057 16.2379 23.9128 16.3282 23.9199 16.4202C23.9482 16.7142 23.934 17.008 23.8703 17.3037C23.8437 17.4294 23.8083 17.548 23.7658 17.6737C23.7233 17.7941 23.6809 17.9198 23.626 18.0384C23.5198 18.2845 23.394 18.5306 23.2453 18.7608C23.1975 18.8458 23.1409 18.9361 23.0842 19.0211C23.0222 19.1113 22.9585 19.1963 22.9019 19.2795C22.824 19.3858 22.7408 19.4973 22.6558 19.5964C22.5796 19.7009 22.5018 19.8054 22.4168 19.8974C22.2981 20.0373 22.1848 20.1701 22.0662 20.2976C21.9954 20.3807 21.9193 20.4657 21.8413 20.5419C21.7653 20.6268 21.6873 20.703 21.6165 20.7738C21.4979 20.8924 21.3988 20.9845 21.3155 21.0606L21.1208 21.2394C21.0925 21.2642 21.0553 21.2784 21.0163 21.2784H19.5079V23.2135H21.4058C21.8307 23.2135 22.2344 23.063 22.5602 22.7868C22.6717 22.6894 23.1586 22.2681 23.734 21.6325C23.7534 21.6112 23.7782 21.5953 23.8066 21.5882L29.0489 20.0727C29.1463 20.0444 29.2454 20.1187 29.2454 20.2214Z" fill="white"/>
</g>
<defs>
<clipPath id="clip0_21224_78189">
<rect width="36" height="36" fill="white"/>
</clipPath>
</defs>
</svg>

<svg xmlns="http://www.w3.org/2000/svg" width="36" height="36" fill="none"><g clip-path="url(#a)"><rect width="36" height="36" fill="#2081E2" rx="12"/><path fill="#fff" d="M29.245 20.221v1.11a.16.16 0 0 1-.095.146c-.347.148-1.535.694-2.03 1.38-1.26 1.755-2.223 4.264-4.376 4.264h-8.981C10.58 27.12 8 24.533 8 21.339v-.103c0-.085.069-.154.154-.154h5.007c.099 0 .172.092.163.19-.036.325.024.658.179.96.297.604.913.982 1.579.982h2.478v-1.936h-2.45a.158.158 0 0 1-.127-.247q.04-.061.088-.131c.232-.33.563-.841.893-1.424.224-.393.442-.813.617-1.234q.052-.115.092-.23c.048-.135.098-.26.133-.386.036-.106.064-.218.092-.322.084-.358.119-.737.119-1.13 0-.154-.007-.315-.021-.469-.007-.168-.029-.336-.05-.505a5 5 0 0 0-.069-.45 8 8 0 0 0-.142-.672l-.02-.085c-.042-.154-.077-.301-.127-.455-.14-.483-.3-.954-.47-1.395a9 9 0 0 0-.204-.512c-.104-.253-.21-.483-.308-.7-.05-.1-.092-.19-.135-.282a10 10 0 0 0-.147-.308c-.035-.077-.076-.147-.104-.218l-.303-.56a.099.099 0 0 1 .112-.143l1.894.513h.005q.006.001.007.002l.25.07.274.077.101.028V8.984c0-.543.436-.984.974-.984.27 0 .514.11.689.289a1 1 0 0 1 .285.695v1.672l.202.056a.2.2 0 0 1 .046.023l.21.16c.071.056.147.125.24.196.182.147.4.337.639.554q.095.083.182.169c.308.286.653.623.983.995q.137.155.274.322c.092.113.19.225.274.336.112.149.232.303.337.464.05.076.106.154.154.23.134.204.253.415.366.625.048.098.098.204.14.308q.191.424.289.855c.02.062.033.13.04.19v.014c.022.085.029.175.036.267a2.9 2.9 0 0 1-.154 1.254c-.043.12-.085.246-.14.364a5 5 0 0 1-.38.723 4 4 0 0 1-.162.26q-.095.134-.182.258a5 5 0 0 1-.246.317 3 3 0 0 1-.24.301c-.118.14-.231.273-.35.4-.07.084-.147.169-.225.245-.076.085-.154.161-.225.232a9 9 0 0 1-.3.287l-.195.178a.16.16 0 0 1-.105.04h-1.508v1.935h1.898c.425 0 .828-.151 1.154-.427.112-.098.599-.519 1.174-1.154a.15.15 0 0 1 .073-.045l5.242-1.515a.155.155 0 0 1 .196.148"/></g><defs><clipPath id="a"><path fill="#fff" d="M0 0h36v36H0z"/></clipPath></defs></svg>
